Adwaita++/actions/22/download.svg

<svg fill="none" height="22" viewBox="0 0 22 22" width="22" xmlns="http://www.w3.org/2000/svg">
  <path d="m8.8 3c-.55228 0-1 .44772-1 1v4.33333h-3.8c-.41202 0-.64721.47039-.4.8l7 9.33337c.2.2666.6.2666.8 0l7-9.33337c.2472-.32962.012-.8-.4-.8h-3.8v-4.33333c0-.55228-.4477-1-1-1z" fill="#444"/>
</svg>

<svg xmlns="http://www.w3.org/2000/svg" fill="none" width="22" height="22" viewBox="0 0 22 22">
 <path fill="#444" d="M8.8 3C8.24772 3 7.8 3.44772 7.8 4V8.33333H4C3.58798 8.33333 3.35279 8.80372 3.6 9.13333L10.6 18.4667C10.8 18.7333 11.2 18.7333 11.4 18.4667L18.4 9.13333C18.6472 8.80371 18.412 8.33333 18 8.33333H14.2V4C14.2 3.44772 13.7523 3 13.2 3H8.8Z"/>
</svg>
